src/assets/ep-food.svg

<svg width="22" height="22" viewBox="0 0 22 22" fill="none" xmlns="http://www.w3.org/2000/svg">
<path d="M2.75241 7.57497V7.56259C2.75239 6.3403 3.11439 5.14538 3.79274 4.12859C4.47108 3.11181 5.43538 2.31871 6.56396 1.84936C7.69255 1.38001 8.93487 1.25543 10.1342 1.49135C11.3335 1.72727 12.4361 2.31311 13.3028 3.17497C13.9847 2.83838 14.7464 2.69687 15.5038 2.76605C16.2611 2.83524 16.9846 3.11243 17.5942 3.56701C18.2039 4.02159 18.676 4.63586 18.9584 5.34195C19.2409 6.04803 19.3226 6.81846 19.1947 7.56809C19.3828 7.58555 19.5653 7.64161 19.7309 7.73276C19.8964 7.8239 20.0413 7.94819 20.1567 8.09786C20.272 8.24752 20.3553 8.41936 20.4013 8.60264C20.4472 8.78591 20.455 8.9767 20.4239 9.16309C19.8024 12.9017 18.2652 15.2681 15.8149 16.2636V17.1876C15.8149 17.7346 15.5976 18.2592 15.2108 18.646C14.824 19.0328 14.2994 19.2501 13.7524 19.2501H8.25241C7.7054 19.2501 7.1808 19.0328 6.794 18.646C6.40721 18.2592 6.18991 17.7346 6.18991 17.1876V16.2636C3.73966 15.2681 2.20241 12.9017 1.58091 9.16309C1.55092 8.98165 1.55762 8.79604 1.60064 8.61724C1.64365 8.43844 1.72209 8.27008 1.83132 8.12213C1.94055 7.97418 2.07835 7.84965 2.23656 7.7559C2.39477 7.66215 2.57018 7.6011 2.75241 7.57634V7.57497ZM4.12741 7.56259H5.50241C5.50241 6.65091 5.86458 5.77657 6.50923 5.13191C7.15389 4.48726 8.02823 4.12509 8.93991 4.12509C9.85159 4.12509 10.7259 4.48726 11.3706 5.13191C12.0152 5.77657 12.3774 6.65091 12.3774 7.56259H13.7524C13.7524 6.28624 13.2454 5.06216 12.3429 4.15964C11.4403 3.25712 10.2163 2.75009 8.93991 2.75009C7.66356 2.75009 6.43948 3.25712 5.53696 4.15964C4.63444 5.06216 4.12741 6.28624 4.12741 7.56259ZM6.87741 7.56259H11.0024C11.0024 7.01558 10.7851 6.49098 10.3983 6.10418C10.0115 5.71739 9.48692 5.50009 8.93991 5.50009C8.3929 5.50009 7.8683 5.71739 7.4815 6.10418C7.09471 6.49098 6.87741 7.01558 6.87741 7.56259ZM16.3182 7.56259H17.7908C17.8946 7.15624 17.9043 6.73156 17.8191 6.3209C17.7339 5.91024 17.5561 5.52445 17.2992 5.19291C17.0423 4.86138 16.7132 4.59286 16.3368 4.40781C15.9605 4.22276 15.5468 4.12606 15.1274 4.12509C14.7974 4.12509 14.4839 4.18284 14.1924 4.28872C14.4358 4.67922 14.6365 5.09997 14.7905 5.54134C15.0524 5.47639 15.3276 5.48976 15.582 5.57981C15.8363 5.66985 16.0587 5.8326 16.2213 6.04786C16.384 6.26312 16.4799 6.52142 16.4971 6.79069C16.5144 7.05997 16.4521 7.32837 16.3182 7.56259ZM14.4399 16.5001H7.56491V17.1876C7.56491 17.3699 7.63734 17.5448 7.76628 17.6737C7.89521 17.8027 8.07008 17.8751 8.25241 17.8751H13.7524C13.9347 17.8751 14.1096 17.8027 14.2385 17.6737C14.3675 17.5448 14.4399 17.3699 14.4399 17.1876V16.5001ZM7.08091 15.1251H14.9239C17.1047 14.4238 18.4852 12.4411 19.0682 8.93759H2.93666C3.51966 12.4411 4.90016 14.4238 7.08091 15.1251Z" fill="#B1B1B1"/>
</svg>

<svg xmlns="http://www.w3.org/2000/svg" width="22" height="22" fill="none"><path fill="#B1B1B1" d="M2.752 7.575v-.012a6.187 6.187 0 0 1 10.55-4.388 4.125 4.125 0 0 1 5.893 4.393 1.376 1.376 0 0 1 1.229 1.595q-.933 5.608-4.61 7.1v.925a2.06 2.06 0 0 1-2.062 2.062h-5.5a2.06 2.06 0 0 1-2.062-2.062v-.924q-3.676-1.494-4.61-7.1a1.375 1.375 0 0 1 1.172-1.588zm1.375-.012h1.375a3.438 3.438 0 0 1 6.875 0h1.375a4.813 4.813 0 1 0-9.625 0m2.75 0h4.125a2.062 2.062 0 0 0-4.125 0m9.441 0h1.473a2.755 2.755 0 0 0-3.599-3.274c.244.39.444.811.598 1.252a1.378 1.378 0 0 1 1.528 2.022M14.44 16.5H7.565v.688a.687.687 0 0 0 .687.687h5.5a.687.687 0 0 0 .688-.687zm-7.36-1.375h7.844c2.18-.701 3.561-2.684 4.144-6.187H2.937C3.52 12.44 4.9 14.424 7.08 15.125"/></svg>
